X:513
%%etbk:tnset id:241,pos:1,rep:3x,ant:
%%etbk:wsite http://www.trad.katesplacedoolin.com/tunes/larrysfavourite.html
%%etbk:wsite http://thesession.org/recordings/948
%%etbk:wsite http://thesession.org/tunes/2389
%%etbk:video src:ytube,cde:hfIJ54ugWvI,desc:third tune
%%etbk:pldat 2016-08-02T18:05,2015-11-25T17:20,2015-01-20T17:48,2015-01-18T11:16,2014-12-11T18:28,2014-12-09T17:13,2014-12-04T19:08,2014-09-21T11:58,2014-09-15T18:42,2014-09-14T12:21,2014-09-14T11:43,2014-09-11T19:14,2014-05-11T12:02,2014-05-09T18:28,2014-05-02T16:59,2014-04-30T16:18,2014-04-12T15:45,2014-04-07T19:10,2014-03-30T17:41,2014-03-21T16:20,2014-03-18T17:05,2014-03-15T17:07,2014-03-09T16:35,2014-03-02T16:50,2014-03-01T17:01,2014-02-14T17:02,2014-02-13T18:20,2013-12-11T19:35,2013-11-24T15:18,2013-11-23T16:08,2013-11-18T18:42,2013-11-16T15:59,2013-11-13T17:01,2013-11-10T15:02,2013-11-09T14:45,2013-11-07T17:31
T: Larry's Favourite
Z: Piano Box Version by Martin Fleischmann
H: Created 2013-11-07 /  Last Modified 2014-03-01
R: reel
M: 4/4
L: 1/8
K: Ador
AG |: "am"!1!E!3!AA!2!G !1!A2!2!B!4!d | !5!e!1!AAA !3!BA!1!G!2!E | "G"!3!G2!1!DG !2!E!3!G!1!D!3!G | !1!GA!3!Bd !5!ed!3!BG |
"am"!1!E!3!AA!2!G !1!A2!2!B!4!d | !5!e!1!AAA !3!BA!1!G!2!E | "G"!1!Gz!2!B!3!d !5!ge!3!d!2!B | !1!A!3!c!2!B!1!G "am"!2!A2 :|
Bd |: "am"!2!e!5!aa!4!g !2!e!4!g!3!f!4!g | !2!ez!1!AA !5!edBe | "G"!4!d2!2!B!1!G !2!A!1!G!2!E!3!F | !1!Gz!2!B!3!d !5!gg!4!f!5!g |
"am"!2!e!5!aa!4!g !2!e!4!g!3!f!4!g | !2!e!1!AAA !3!BA!1!G!2!E | "G"!1!Gz!2!B!3!d !5!ge!3!d!2!B | !1!A!3!c!2!B!1!G "am"!1!A2 :|
Bd |: "am"!2!e!4!aag !4!a2ga | "G"!5!b!3!ggg !4!ab!3!g!2!e | !1!d!5!ggf g2!3!e!5!g | !2!d!1!B!2!BB !1!GA!3!B!4!d |
"am"!2!e!4!aag !4!a2ga | "em"!5!b!3!ggg !4!ab!3!g!2!e  | "G"!1!dz!2!BB !5!g!4!e!3!d!2!B | !1!A!3!c!2!B!1!G "am"!2!A2 :|


